rospo-icon-theme-classic-common/16x16/apps/rdm.svg

<svg height="16" viewBox="0 0 16 16" width="16" xmlns="http://www.w3.org/2000/svg"><path d="m8.0003692 5.9999982c-.5306358-.0001004-1.0612981.1230733-1.4539788.3684979l-5.95773213 3.7229519c-.78536223.490848-.78463303 1.326614.00072 1.817464l5.95700053 3.72295c.7853618.490849 2.1225975.490847 2.9079581 0l5.9570151-3.72295c.78536-.490848.784621-1.326617-.00076-1.817464l-5.9562443-3.7229519c-.3926807-.2454246-.9233426-.3683975-1.4539785-.3684979z" fill="#af2d2c"/><path d="m8.0003696 2.9999999c-.5306358-.0001004-1.0612981.1230733-1.4539788.3684979l-5.95773237 3.7229515c-.78536223.4908484-.78463303 1.3266142.00072 1.8174633l5.95700077 3.7229524c.7853618.490848 2.1225975.490846 2.9079581 0l5.9570147-3.7229524c.78536-.4908475.784621-1.3266166-.00076-1.8174633l-5.9562439-3.7229515c-.3926807-.2454246-.9233426-.3683975-1.4539785-.3684979z" fill="#da3837"/><path d="m8.0003692.00000008c-.5306358-.000101-1.0612981.12307298-1.4539788.36849794l-5.95773213 3.72295048c-.78536223.4908499-.78463303 1.3266148.00072 1.8174637l5.95700053 3.7229504c.7853618.4908494 2.1225975.4908494 2.9079581 0l5.9570151-3.7229504c.78536-.4908499.784621-1.3266168-.00076-1.8174637l-5.9562443-3.72295048c-.3926807-.24542496-.9233426-.36839793-1.4539785-.36849794z" fill="#e0504d"/><g fill="#fff"><path d="m815.33 260.85 95.87 35.9-123.63 12.83-27.68 66.59-44.7-74.31-142.75-12.83 106.52-38.41-31.96-58.96 99.72 39 94.02-30.78z" transform="matrix(.01180805 0 0 .01625937 -.759432 -2.116255)"/><path d="m521.79 524.11 330.61-50.73-99.89 146.43z" transform="matrix(.00907408 0 0 .02048719 1.265272 -3.698124)"/><ellipse cx="4" cy="4.5" rx="2" ry="1.5"/></g><path d="m1046.891 477.818-206.066-77.243 206.066-85.628z" opacity=".25" transform="matrix(.00970563 0 0 .01841949 .839265 -2.801161)"/><path d="m1252.957 392.274-206.066 85.544v-162.871z" opacity=".4" transform="matrix(.00970563 0 0 .01841949 .839265 -2.801161)"/></svg>

<svg xmlns="http://www.w3.org/2000/svg" width="16" height="16" version="1.1" viewBox="0 0 16 16">
 <path style="fill:#af2d2c" d="M 8.0003692,5.9999982 C 7.4697334,5.9998978 6.9390711,6.1230715 6.5463904,6.3684961 L 0.58865827,10.091448 c -0.78536223,0.490848 -0.78463303,1.326614 7.2e-4,1.817464 l 5.95700053,3.72295 c 0.7853618,0.490849 2.1225975,0.490847 2.9079581,0 l 5.9570151,-3.72295 c 0.78536,-0.490848 0.784621,-1.326617 -7.6e-4,-1.817464 L 9.4543477,6.3684961 C 9.061667,6.1230715 8.5310051,6.0000986 8.0003692,5.9999982 Z"/>
 <path style="fill:#da3837" d="M 8.0003696,2.9999999 C 7.4697338,2.9998995 6.9390715,3.1230732 6.5463908,3.3684978 L 0.58865843,7.0914493 c -0.78536223,0.4908484 -0.78463303,1.3266142 7.2e-4,1.8174633 L 6.5463792,12.631865 c 0.7853618,0.490848 2.1225975,0.490846 2.9079581,0 L 15.411352,8.9089126 c 0.78536,-0.4908475 0.784621,-1.3266166 -7.6e-4,-1.8174633 L 9.4543481,3.3684978 C 9.0616674,3.1230732 8.5310055,3.0001003 8.0003696,2.9999999 Z"/>
 <path style="fill:#e0504d" d="M 8.0003692,8.4999999e-8 C 7.4697334,-1.00915e-4 6.9390711,0.12307306 6.5463904,0.36849802 L 0.58865827,4.0914485 c -0.78536223,0.4908499 -0.78463303,1.3266148 7.2e-4,1.8174637 L 6.5463788,9.6318626 c 0.7853618,0.4908494 2.1225975,0.4908494 2.9079581,0 L 15.411352,5.9089122 c 0.78536,-0.4908499 0.784621,-1.3266168 -7.6e-4,-1.8174637 L 9.4543477,0.36849802 C 9.061667,0.12307306 8.5310051,1.00085e-4 8.0003692,8.4999999e-8 Z"/>
 <polygon style="fill:#ffffff" points="815.33 260.85 911.2 296.75 787.57 309.58 759.89 376.17 715.19 301.86 572.44 289.03 678.96 250.62 647 191.66 746.72 230.66 840.74 199.88" transform="matrix(0.01180805,0,0,0.01625937,-0.75943243,-2.1162547)"/>
 <polygon style="fill:#ffffff" points="521.79 524.11 852.4 473.38 752.51 619.81" transform="matrix(0.00907408,0,0,0.02048719,1.2652721,-3.6981243)"/>
 <ellipse style="fill:#ffffff" cx="4" cy="4.5" rx="2" ry="1.5"/>
 <g transform="matrix(0.34559834,0,0,0.43812689,-0.13273723,-2.337789)">
  <path style="opacity:0.25" d="M 1046.891,477.818 840.825,400.575 1046.891,314.947 Z" transform="matrix(0.02808355,0,0,0.04204144,2.8125203,-1.0576208)"/>
  <path style="opacity:0.4" d="m 1252.957,392.274 -206.066,85.544 0,-162.871 z" transform="matrix(0.02808355,0,0,0.04204144,2.8125203,-1.0576208)"/>
 </g>
</svg>
